frontend/public/svg/interface/suitcase.svg

<svg width="175" height="140" viewBox="0 0 175 140" fill="none" xmlns="http://www.w3.org/2000/svg">
<g clip-path="url(#clip0)">
<path d="M174.294 75.7536C174.369 62.3134 173.95 50.5581 173.013 39.817C171.701 24.78 163.339 16.4959 148.833 15.8542C142.673 15.582 136.402 15.7895 130.338 15.9839C127.581 16.074 124.73 16.168 121.929 16.2146C121.023 16.2295 120.123 16.2249 119.346 16.221H118.93C118.614 15.3168 118.311 14.4354 118.013 13.5708C117.284 11.4533 116.59 9.4499 115.833 7.46527C115.805 7.3661 115.778 7.2657 115.75 7.16718C115.393 5.79388 114.656 4.54941 113.625 3.57703C111.718 1.35971 109.084 0.28303 105.74 0.367937C101.201 0.486548 96.5835 0.5708 92.1183 0.651819C85.2767 0.776264 78.2016 0.904681 71.2455 1.16135C67.5099 1.29876 65.4653 1.95092 64.1417 3.61342C63.2705 4.13049 62.557 4.87616 62.0783 5.77023C60.421 9.30076 59.4689 13.122 59.2755 17.0188H58.1521C56.3675 17.0188 54.7193 17.0139 53.0705 17.0242C51.0957 17.0352 49.1202 17.0352 47.1448 17.0359C42.3381 17.0359 37.3669 17.0358 32.4788 17.2005C26.5242 17.4203 20.6635 18.7557 15.1998 21.1378C7.51144 24.4434 3.6685 29.8741 3.45051 37.7336C3.30304 43.075 3.09608 48.5059 2.89621 53.7572C2.72286 58.3085 2.54324 63.0149 2.40287 67.6465C2.32784 70.138 2.3237 72.6716 2.31917 75.1216C2.31141 79.4273 2.30317 83.88 1.90795 88.2097C0.907289 99.1666 1.0838 107.959 2.46351 115.878C3.71062 123.033 7.05605 128.816 12.1402 132.601C16.7689 136.145 22.3892 138.147 28.2118 138.326C31.2536 138.412 34.2952 138.506 37.3367 138.607C44.8937 138.85 52.7074 139.101 60.399 139.161C76.6964 139.291 91.9793 139.356 106.652 139.356C113.375 139.356 119.983 139.342 126.475 139.316C133.812 139.286 141.741 138.947 150.717 138.278C162.037 137.436 169.729 131.214 172.957 120.279C174.056 116.619 174.642 112.822 174.698 109.001C174.73 103.442 174.612 97.7945 174.498 92.3325C174.38 86.8959 174.26 81.2777 174.294 75.7536ZM164.808 93.4448C164.867 98.7349 164.929 104.026 164.994 109.317C165.044 113.435 164.081 117.503 162.188 121.159C160.464 124.529 157.919 126.53 154.604 127.101C150.96 127.832 147.264 128.266 143.551 128.401C130.412 128.499 117.051 128.484 104.128 128.472C99.4593 128.467 94.7917 128.464 90.1241 128.462C85.3524 128.462 80.5826 128.464 75.8147 128.467C64.2942 128.476 52.384 128.486 40.671 128.421C36.271 128.388 31.8758 128.123 27.5039 127.624C19.3841 126.709 13.6163 121.041 12.0761 112.463C10.3646 102.936 10.5607 93.1609 10.7496 83.7109C10.7826 82.0613 10.8144 80.4131 10.839 78.7655C10.8782 75.9811 10.9372 73.1869 11.0162 70.3843C12.7533 70.7265 14.5139 70.9372 16.2828 71.0137C20.5067 71.155 24.7997 71.1433 28.9524 71.1323C30.9304 71.1277 32.9077 71.1213 34.8838 71.1323C35.6516 71.1368 36.4096 71.1809 37.2874 71.2314C37.5228 71.2457 37.7642 71.2593 38.0138 71.2729C38.0138 72.0656 38.0089 72.8369 38.005 73.5926C37.9953 75.6667 37.9854 77.6254 38.0261 79.5874C38.1135 83.7776 39.8476 85.7739 43.8243 86.2633C47.5834 86.6729 51.3629 86.8648 55.144 86.8382H55.2779C62.5568 86.8382 65.304 84.033 65.3952 76.5326C65.4114 75.2104 65.4071 73.8863 65.4025 72.5368V71.2904H114.003C114.003 71.4486 114.003 71.6048 114.003 71.7584C113.998 72.5653 113.993 73.3139 114.015 74.058C114.055 75.4237 114.095 76.5618 114.214 77.7421C114.66 82.1806 116.607 84.07 120.941 84.2631C124.398 84.4174 128.102 84.3927 131.947 84.1834C135.704 83.9812 137.98 81.863 138.527 78.0571C138.764 76.4069 138.867 74.7204 138.975 72.9367C139.015 72.2788 139.056 71.5996 139.104 70.8912L144.521 70.8944C149.863 70.8976 155.089 70.9022 160.313 70.8769C161.722 70.8847 163.13 70.8199 164.533 70.6825C164.636 78.3313 164.722 85.9613 164.808 93.4448ZM77.4842 9.33252C81.9571 9.16724 86.4934 9.10508 90.9456 9.06036C95.6566 9.17638 100.496 9.29181 105.269 9.367C105.668 9.3659 106.065 9.40757 106.454 9.49138C106.907 9.97658 107.199 10.5911 107.287 11.2497C107.589 12.5576 107.981 13.8427 108.463 15.0953C108.552 15.6596 108.65 16.2234 108.756 16.7869H68.2583C69.8942 9.61446 70.0022 9.60993 77.4875 9.33317L77.4842 9.33252ZM130.158 71.2826C130.133 71.492 130.109 71.6994 130.085 71.9062C129.992 72.9445 129.824 73.9744 129.584 74.9887C129.423 75.4107 129.107 75.7555 128.701 75.9519C126.747 76.1625 124.775 76.2559 122.689 76.355C122.136 76.381 121.577 76.4075 121.008 76.4367L120.425 71.2826H130.158ZM55.9962 71.3546V77.5489H45.9667L45.1524 71.6767C47.2611 70.9074 52.3738 70.7505 55.9994 71.3546H55.9962ZM163.639 61.0711C163.421 61.0866 163.205 61.1015 162.987 61.1106C161.852 61.1573 160.718 61.2122 159.582 61.2673C157.119 61.3865 154.57 61.5092 152.069 61.5423C140.438 61.697 128.807 61.8405 117.176 61.9727C106.795 62.0959 96.414 62.2228 86.0335 62.3538C66.1296 62.613 46.2259 62.8853 26.323 63.1709L11.2224 63.3823C11.3847 58.5536 11.5737 53.7443 11.7606 49.0154C11.8589 46.5356 11.9559 44.0564 12.0512 41.5779C12.4095 32.1396 14.1338 29.9345 22.9075 27.6984C28.3113 26.3008 33.8613 25.5493 39.4414 25.4596C51.0237 25.319 62.8033 25.3386 74.1963 25.3567C83.4746 25.3723 93.0705 25.3885 102.508 25.3172C107.877 25.2777 113.322 25.0319 118.59 24.7947C122.78 24.6061 127.112 24.411 131.37 24.3216C137.209 24.1978 143.248 24.0707 149.168 24.6871C157.849 25.59 161.846 29.6318 162.964 38.6365C163.647 43.5527 164.075 48.5014 164.245 53.4623C164.293 55.978 164.338 58.5003 164.379 61.0289C164.132 61.038 163.884 61.0555 163.642 61.0711H163.639Z" fill="black"/>
</g>
<defs>
<clipPath id="clip0">
<rect width="174" height="140" fill="white" transform="translate(0.777344)"/>
</clipPath>
</defs>
</svg>

<svg xmlns="http://www.w3.org/2000/svg" width="175" height="140" fill="none" viewBox="0 0 175 140"><g clip-path="url(#a)"><path fill="#000" d="M174.294 75.754c.075-13.44-.344-25.196-1.281-35.937-1.312-15.037-9.674-23.321-24.18-23.963-6.16-.272-12.431-.064-18.495.13-2.757.09-5.608.184-8.409.23-.906.016-1.806.01-2.583.007h-.416c-.316-.904-.619-1.786-.917-2.65-.729-2.118-1.423-4.121-2.18-6.106l-.083-.298a7.55 7.55 0 0 0-2.125-3.59c-1.907-2.217-4.541-3.294-7.885-3.21-4.539.12-9.156.204-13.622.285-6.841.124-13.916.253-20.872.51-3.736.137-5.78.789-7.104 2.451a5.56 5.56 0 0 0-2.064 2.157 30 30 0 0 0-2.803 11.249h-1.123c-1.785 0-3.433-.005-5.081.005-1.975.011-3.95.011-5.926.012-4.807 0-9.778 0-14.666.165a47.6 47.6 0 0 0-17.28 3.937C7.512 24.443 3.67 29.874 3.452 37.734c-.148 5.341-.355 10.772-.555 16.023-.173 4.552-.353 9.258-.493 13.89-.075 2.491-.08 5.025-.084 7.475-.008 4.305-.016 8.758-.411 13.088-1 10.957-.824 19.749.556 27.668 1.247 7.155 4.592 12.938 9.676 16.723a27.84 27.84 0 0 0 16.072 5.725q4.562.13 9.125.281c7.557.243 15.37.494 23.062.554 16.297.13 31.58.195 46.253.195q10.085 0 19.823-.04c7.337-.03 15.266-.369 24.242-1.038 11.32-.842 19.012-7.064 22.24-17.999a41.3 41.3 0 0 0 1.741-11.278c.032-5.559-.086-11.207-.2-16.669-.118-5.436-.238-11.054-.204-16.578m-9.486 17.69q.089 7.936.186 15.873a25.1 25.1 0 0 1-2.806 11.842c-1.724 3.37-4.269 5.371-7.584 5.942a69 69 0 0 1-11.053 1.3c-13.139.098-26.5.083-39.423.071q-7.003-.007-14.004-.01-7.157 0-14.31.005c-11.52.009-23.43.019-35.143-.046a124 124 0 0 1-13.167-.797c-8.12-.915-13.888-6.583-15.428-15.161-1.711-9.527-1.515-19.302-1.326-28.752q.05-2.475.089-4.945.06-4.178.177-8.382c1.737.343 3.498.553 5.267.63 4.224.141 8.517.13 12.67.118 1.977-.004 3.955-.01 5.93 0 .769.005 1.527.049 2.404.1l.727.04q-.002 1.19-.009 2.32c-.01 2.075-.02 4.033.021 5.995.087 4.19 1.822 6.187 5.798 6.676 3.76.41 7.539.602 11.32.575h.134c7.279 0 10.026-2.805 10.117-10.305.016-1.323.012-2.647.008-3.996V71.29h48.6v.468c-.005.807-.01 1.556.012 2.3.04 1.366.08 2.504.199 3.684.446 4.439 2.393 6.328 6.727 6.521 3.457.154 7.161.13 11.006-.08 3.757-.202 6.033-2.32 6.58-6.126.237-1.65.34-3.337.448-5.12.04-.658.081-1.337.129-2.046l5.417.003c5.342.004 10.568.008 15.792-.017a41 41 0 0 0 4.22-.194c.103 7.648.189 15.278.275 22.762M77.484 9.334c4.473-.166 9.01-.228 13.462-.273 4.71.116 9.55.232 14.323.307q.6-.002 1.185.124c.453.486.745 1.1.833 1.759a29 29 0 0 0 1.176 3.845q.134.847.293 1.692H68.258c1.636-7.173 1.744-7.177 9.23-7.454zm52.674 61.95-.073.623a22 22 0 0 1-.501 3.083 1.77 1.77 0 0 1-.883.963c-1.954.21-3.926.304-6.012.403q-.828.038-1.681.082l-.583-5.154zm-74.162.072v6.194h-10.03l-.814-5.872c2.11-.77 7.222-.927 10.847-.322zM163.64 61.07q-.326.025-.652.04c-1.135.046-2.269.101-3.405.156-2.463.12-5.012.242-7.513.275q-17.446.232-34.893.43-15.572.185-31.142.382-29.856.388-59.711.817l-15.1.211c.162-4.828.35-9.638.538-14.367q.147-3.72.29-7.437c.358-9.438 2.083-11.644 10.856-13.88a70.6 70.6 0 0 1 16.534-2.238c11.583-.141 23.362-.121 34.755-.103 9.279.015 18.874.032 28.312-.04 5.369-.04 10.814-.285 16.082-.522 4.19-.189 8.522-.384 12.78-.473 5.839-.124 11.878-.251 17.798.365 8.681.903 12.678 4.945 13.796 13.95a143 143 0 0 1 1.281 14.825q.072 3.774.134 7.567c-.247.009-.495.026-.737.042z"/></g><defs><clipPath id="a"><path fill="#fff" d="M.777 0h174v140h-174z"/></clipPath></defs></svg>
